X:258
T:Perfect Cure (the)
R:jig 32
M:6/8
L:1/8
Q:1/4=120
R:jig 32
Z:P J Headford.
K:D
|:FGA D2d|c2B A2G|FGA D2F|E3EAG|
FGA D2d|c2B A2G|FGA ABc|1d2zA2G:|2dAB cde||!
|:fed e2d|c2B A2e|fed c2d|e3 eag|
fed e2d|c2B A2G|FGA ABc|1dAB cde:|2d2zA2G||

